X:422
T:Major Malley's March
T:Major Molle
C:Andrew Gow
D:Battlefield Band, Home Is Where the Van Is
Z:Nigel Gatherer
M:2/4
L:1/8
K:D dorian
DA  A>G   | FE    DC | DA  A>G   | F2 E2  |
DA  A>B   | cA/B/ cA | G>E CE    | G2 FE :|
DA- AA/A/ | FD    EC | DA  A/A/A | F2 EF  |
DA- AA/A/ | FD    EF | G>E CE    | G2 FE  |
DA- AA/A/ | FD    EC | DA  A/A/A | F2 EF  |
DA  A>B   | cA/B/ cA | G>E CE    | G2 FE |]
<end>
<start>
